Newaita-dark/mimetypes/24/payment-card-discover.svg

<svg height="24pt" viewBox="0 0 24 24" width="24pt" xmlns="http://www.w3.org/2000/svg" xmlns:xlink="http://www.w3.org/1999/xlink"><linearGradient id="a" gradientUnits="userSpaceOnUse" x1="12.403533" x2="12.403533" y1="19.53702825" y2="20.52931115627"><stop offset="0" stop-opacity=".27451"/><stop offset="1" stop-opacity="0"/></linearGradient><linearGradient id="b"><stop offset="0" stop-opacity=".313725"/><stop offset=".222222" stop-opacity=".27451"/><stop offset="1" stop-opacity="0"/></linearGradient><radialGradient id="c" cx="450.90894" cy="189.57936" gradientTransform="matrix(.00000013 -.0585994 -.105479 -.00000008 40.09027 46.208077)" gradientUnits="userSpaceOnUse" r="21.166656" xlink:href="#b"/><radialGradient id="d" cx="450.90894" cy="189.57936" gradientTransform="matrix(-.00000013 .0585994 .105479 .00000008 -16.275496 -7.134032)" gradientUnits="userSpaceOnUse" r="21.166656" xlink:href="#b"/><radialGradient id="e" cx="450.90894" cy="189.57936" gradientTransform="matrix(-.00000013 -.0585994 .105479 -.00000008 -16.275496 46.208077)" gradientUnits="userSpaceOnUse" r="21.166656" xlink:href="#b"/><radialGradient id="f" cx="450.90894" cy="189.57936" gradientTransform="matrix(.00000013 .0585994 -.105479 .00000008 40.090269 -7.134033)" gradientUnits="userSpaceOnUse" r="21.166656" xlink:href="#b"/><linearGradient id="g" gradientUnits="userSpaceOnUse" x1="11.907393" x2="11.907393" y1="23.01001606253" y2="1.17979540627"><stop offset="0" stop-color="#bdbdbd"/><stop offset="1" stop-color="#e0e0e0"/></linearGradient><linearGradient id="h"><stop offset="0" stop-color="#ff7043"/><stop offset="1" stop-color="#ffb74d"/></linearGradient><linearGradient id="i" gradientUnits="userSpaceOnUse" x1="11.907393" x2="11.907393" xlink:href="#h" y1="19.537026125" y2="4.652784875"/><linearGradient id="j" gradientUnits="userSpaceOnUse" x1="11.90736" x2="11.90736" y1="19.5369785937" y2="4.65277735335"><stop offset="0" stop-color="#424242"/><stop offset="1" stop-color="#616161"/></linearGradient><linearGradient id="k" gradientUnits="userSpaceOnUse" x1="12.40353468753" x2="12.40353468753" xlink:href="#h" y1="19.537026125" y2="4.652784875"/><path d="m3.472656 19.535156h16.867188v.996094h-16.867188zm0 0" fill="url(#a)"/><path d="m20.339844 19.535156h1.988281v-.992187h-1.988281zm0 0" fill="url(#c)"/><path d="m3.472656 19.535156h-1.984375v.996094h1.984375zm0 0" fill="url(#d)"/><path d="m3.472656 19.535156h-1.984375v-.992187h1.984375zm0 0" fill="url(#e)"/><path d="m20.339844 19.535156h1.988281v.996094h-1.988281zm0 0" fill="url(#f)"/><path d="m2.976562 4.652344h17.863282c.546875 0 .992187.445312.992187.992187v12.898438c0 .550781-.445312.992187-.992187.992187h-17.863282c-.546874 0-.992187-.441406-.992187-.992187v-12.898438c0-.546875.445313-.992187.992187-.992187zm0 0" fill="url(#g)"/><path d="m21.832031 12.226562c-4.132812 3.949219-11.128906 6.703126-19.269531 7.222657.128906.054687.265625.085937.414062.085937h17.863282c.546875 0 .992187-.441406.992187-.992187zm0 0" fill="url(#i)"/><path d="m2.976562 4.652344c-.550781 0-.992187.441406-.992187.992187v.25c0-.550781.441406-.992187.992187-.992187h17.863282c.546875 0 .992187.441406.992187.992187v-.25c0-.550781-.445312-.992187-.992187-.992187zm0 0" fill="#fff" fill-opacity=".588235"/><path d="m1.984375 18.304688v.238281c0 .550781.441406.992187.992187.992187h17.863282c.546875 0 .992187-.441406.992187-.992187v-.238281c0 .550781-.445312.992187-.992187.992187h-17.863282c-.550781 0-.992187-.441406-.992187-.992187zm0 0" fill-opacity=".235294"/><path d="m63.493937-115.759477h381.046945c11.665552 0 21.164645 9.499093 21.164645 21.164646v275.140392c0 11.748878-9.499093 21.164645-21.164645 21.164645h-381.046945c-11.665553 0-21.164646-9.415767-21.164646-21.164645v-275.140392c0-11.665553 9.499093-21.164646 21.164646-21.164646zm0 0" fill="none" stroke="#212121" stroke-linecap="round" stroke-linejoin="round" stroke-width="3" transform="matrix(.0468795 0 0 .0468795 0 10.079087)"/><path d="m1760.146897 985.732651c-333.196532 318.394796-897.237164 540.42084-1553.55245 582.306605 10.392709 4.409028 21.415278 6.928472 33.382639 6.928472h1440.177449c44.090278 0 79.992362-35.587153 79.992362-79.992362zm0 0" fill="none" stroke="#212121" stroke-linecap="round" stroke-linejoin="round" stroke-width="11.338583" transform="scale(.0124035)"/><path d="m10.4375 10.4375c-.640625 0-1.152344.503906-1.152344 1.136719 0 .636719.5 1.128906 1.144532 1.128906.179687 0 .335937-.035156.53125-.125v-.5c-.171876.171875-.320313.238281-.511719.238281-.425781 0-.730469-.308594-.730469-.746094 0-.417968.3125-.746093.710938-.746093.199218 0 .355468.074219.53125.246093v-.5c-.1875-.09375-.339844-.132812-.523438-.132812zm-1.996094.015625c-.386718 0-.679687.265625-.679687.621094 0 .296875.136719.449219.535156.59375.164063.058593.25.097656.292969.121093.082031.058594.125.132813.125.226563 0 .175781-.136719.304687-.328125.304687-.199219 0-.363281-.101562-.460938-.289062l-.273437.261719c.195312.289062.429687.414062.75.414062.441406 0 .75-.292969.75-.710937 0-.34375-.144532-.5-.625-.675782-.253906-.09375-.328125-.15625-.328125-.273437 0-.136719.132812-.242187.316406-.242187.125 0 .230469.054687.339844.175781l.222656-.289063c-.183594-.160156-.402344-.238281-.636719-.238281zm-3.351562.035156v2.167969h.621094c.328124 0 .5625-.078125.773437-.25.246094-.207031.390625-.515625.390625-.832031 0-.640625-.476562-1.085938-1.164062-1.085938zm1.980468 0v2.167969h.421876v-2.167969zm6.203126 0 .917968 2.222657h.226563l.9375-2.222657h-.457031l-.585938 1.457031-.578125-1.457031zm2.273437 0v2.167969h1.199219v-.367188h-.777344v-.585937h.75v-.367187h-.75v-.480469h.777344v-.367188zm1.480469 0v2.167969h.421875v-.871094h.054687l.585938.871094h.519531l-.683594-.914062c.320313-.066407.496094-.28125.496094-.613282 0-.40625-.28125-.640625-.769531-.640625zm.421875.339844h.128906c.265625 0 .40625.109375.40625.320313 0 .21875-.140625.335937-.414063.335937h-.121093zm-11.933594.027344h.113281c.273438 0 .4375.046875.578125.175781.144531.128906.234375.332031.234375.539062 0 .207032-.089844.414063-.234375.546876-.132812.117187-.304687.171874-.578125.171874h-.113281zm0 0" fill="url(#j)"/><path d="m12.28125 10.484375c.613281 0 1.113281.496094 1.113281 1.113281 0 .617188-.5 1.117188-1.113281 1.117188-.617188 0-1.117188-.5-1.117188-1.117188 0-.617187.5-1.113281 1.117188-1.113281zm0 0" fill="url(#k)"/><g fill="none" stroke="#212121"><path d="m841.494455 841.494455c-51.648612 0-92.904515 40.626042-92.904515 91.644793 0 51.333681 40.311112 91.014932 92.274654 91.014932 14.486806 0 27.084028-2.834375 42.830556-10.077778v-40.311112c-13.856945 13.856945-25.824306 19.210764-41.255903 19.210764-34.327431 0-58.892015-24.879514-58.892015-60.151737 0-33.69757 25.194445-60.151737 57.317362-60.151737 16.061458 0 28.658681 5.983681 42.830556 19.840626v-40.311112c-15.116667-7.558333-27.398959-10.707639-42.200695-10.707639zm-160.929516 1.259722c-31.178125 0-54.797917 21.415278-54.797917 50.073959 0 23.934723 11.022569 36.217015 43.145486 47.869445 13.227084 4.723959 20.155556 7.873264 23.619792 9.762848 6.613542 4.723958 10.077778 10.707639 10.077778 18.265972 0 14.171875-11.022569 24.564584-26.454167 24.564584-16.061458 0-29.288542-8.188195-37.161806-23.304862l-22.045139 21.100348c15.746528 23.304861 34.642362 33.382639 60.466668 33.382639 35.587153 0 60.466667-23.619792 60.466667-57.317362 0-27.713889-11.652431-40.311111-50.38889-54.482987-20.470486-7.558333-26.454167-12.597222-26.454167-22.045139 0-11.022569 10.707639-19.525694 25.509376-19.525694 10.077778 0 18.580903 4.409027 27.398958 14.171875l17.951042-23.304862c-14.801736-12.912153-32.437847-19.210764-51.333681-19.210764zm-270.21042 2.834375v174.786461h50.073959c26.454167 0 45.350001-6.298611 62.356251-20.155556 19.840625-16.69132 31.493056-41.570834 31.493056-67.080209 0-51.648612-38.421529-87.550696-93.849307-87.550696zm159.669794 0v174.786461h34.0125v-174.786461zm500.109728 0 74.008682 179.195489h18.265972l75.583334-179.195489h-36.846875l-47.239584 117.469099-46.609723-117.469099zm183.289586 0v174.786461h96.683682v-29.603473h-62.671182v-47.239584h60.466668v-29.603472h-60.466668v-38.736459h62.671182v-29.603473zm119.358682 0v174.786461h34.0125v-70.229515h4.409028l47.239584 70.229515h41.885765l-55.112848-73.693751c25.824306-5.35382 39.996181-22.675 39.996181-49.444098 0-32.752778-22.675001-51.648612-62.041321-51.648612zm34.0125 27.398959h10.392709c21.415278 0 32.752778 8.818056 32.752778 25.824306 0 17.636111-11.3375 27.084028-33.382639 27.084028h-9.762848zm-962.112859 2.204514h9.132986c22.045139 0 35.272223 3.779167 46.609723 14.171875 11.652431 10.392709 18.895834 26.769098 18.895834 43.460417 0 16.69132-7.243403 33.38264-18.895834 44.090279-10.707639 9.447916-24.564584 13.856944-46.609723 13.856944h-9.132986zm0 0" stroke-width="11.338583" transform="scale(.0124035)"/><path d="m261.974983 8.64531c13.082084 0 23.747732 10.582322 23.747732 23.747732 0 13.165409-10.665648 23.831057-23.747732 23.831057-13.16541 0-23.831058-10.665648-23.831058-23.831057 0-13.16541 10.665648-23.747732 23.831058-23.747732zm0 0" stroke-linecap="round" stroke-linejoin="round" stroke-width="3" transform="matrix(.0468795 0 0 .0468795 0 10.079087)"/></g></svg>

<?xml version="1.0" encoding="UTF-8"?>
<svg xmlns="http://www.w3.org/2000/svg" xmlns:xlink="http://www.w3.org/1999/xlink" width="24pt" height="24pt" viewBox="0 0 24 24" version="1.1">
<defs>
<linearGradient id="linear0" gradientUnits="userSpaceOnUse" x1="254" y1="233.5" x2="254" y2="254.66667" gradientTransform="matrix(0.0468795,0,0,0.0468795,0.49614,8.590665)">
<stop offset="0" style="stop-color:rgb(0%,0%,0%);stop-opacity:0.27451;"/>
<stop offset="1" style="stop-color:rgb(0%,0%,0%);stop-opacity:0;"/>
</linearGradient>
<radialGradient id="radial0" gradientUnits="userSpaceOnUse" cx="450.90894" cy="189.57936" fx="450.90894" fy="189.57936" r="21.166656" gradientTransform="matrix(0.000000130628,-0.0585994,-0.105479,-0.0000000761539,40.09027,46.208077)">
<stop offset="0" style="stop-color:rgb(0%,0%,0%);stop-opacity:0.313725;"/>
<stop offset="0.222222" style="stop-color:rgb(0%,0%,0%);stop-opacity:0.27451;"/>
<stop offset="1" style="stop-color:rgb(0%,0%,0%);stop-opacity:0;"/>
</radialGradient>
<radialGradient id="radial1" gradientUnits="userSpaceOnUse" cx="450.90894" cy="189.57936" fx="450.90894" fy="189.57936" r="21.166656" gradientTransform="matrix(-0.000000130628,0.0585994,0.105479,0.0000000761539,-16.275496,-7.134032)">
<stop offset="0" style="stop-color:rgb(0%,0%,0%);stop-opacity:0.313725;"/>
<stop offset="0.222222" style="stop-color:rgb(0%,0%,0%);stop-opacity:0.27451;"/>
<stop offset="1" style="stop-color:rgb(0%,0%,0%);stop-opacity:0;"/>
</radialGradient>
<radialGradient id="radial2" gradientUnits="userSpaceOnUse" cx="450.90894" cy="189.57936" fx="450.90894" fy="189.57936" r="21.166656" gradientTransform="matrix(-0.000000130628,-0.0585994,0.105479,-0.0000000761539,-16.275496,46.208077)">
<stop offset="0" style="stop-color:rgb(0%,0%,0%);stop-opacity:0.313725;"/>
<stop offset="0.222222" style="stop-color:rgb(0%,0%,0%);stop-opacity:0.27451;"/>
<stop offset="1" style="stop-color:rgb(0%,0%,0%);stop-opacity:0;"/>
</radialGradient>
<radialGradient id="radial3" gradientUnits="userSpaceOnUse" cx="450.90894" cy="189.57936" fx="450.90894" fy="189.57936" r="21.166656" gradientTransform="matrix(0.000000130628,0.0585994,-0.105479,0.0000000761539,40.090269,-7.134033)">
<stop offset="0" style="stop-color:rgb(0%,0%,0%);stop-opacity:0.313725;"/>
<stop offset="0.222222" style="stop-color:rgb(0%,0%,0%);stop-opacity:0.27451;"/>
<stop offset="1" style="stop-color:rgb(0%,0%,0%);stop-opacity:0;"/>
</radialGradient>
<linearGradient id="linear1" gradientUnits="userSpaceOnUse" x1="254" y1="275.83334" x2="254" y2="-189.83333" gradientTransform="matrix(0.0468795,0,0,0.0468795,0,10.079087)">
<stop offset="0" style="stop-color:rgb(74.117647%,74.117647%,74.117647%);stop-opacity:1;"/>
<stop offset="1" style="stop-color:rgb(87.843137%,87.843137%,87.843137%);stop-opacity:1;"/>
</linearGradient>
<linearGradient id="linear2" gradientUnits="userSpaceOnUse" x1="254" y1="201.75" x2="254" y2="-115.75" gradientTransform="matrix(0.0468795,0,0,0.0468795,0,10.079087)">
<stop offset="0" style="stop-color:rgb(100%,43.921569%,26.27451%);stop-opacity:1;"/>
<stop offset="1" style="stop-color:rgb(100%,71.764706%,30.196078%);stop-opacity:1;"/>
</linearGradient>
<linearGradient id="linear3" gradientUnits="userSpaceOnUse" x1="960" y1="1575.1182" x2="960" y2="375.1181" gradientTransform="matrix(0.0124035,0,0,0.0124035,0,0)">
<stop offset="0" style="stop-color:rgb(25.882353%,25.882353%,25.882353%);stop-opacity:1;"/>
<stop offset="1" style="stop-color:rgb(38.039216%,38.039216%,38.039216%);stop-opacity:1;"/>
</linearGradient>
<linearGradient id="linear4" gradientUnits="userSpaceOnUse" x1="264.58334" y1="201.75" x2="264.58334" y2="-115.75" gradientTransform="matrix(0.0468795,0,0,0.0468795,0,10.079087)">
<stop offset="0" style="stop-color:rgb(100%,43.921569%,26.27451%);stop-opacity:1;"/>
<stop offset="1" style="stop-color:rgb(100%,71.764706%,30.196078%);stop-opacity:1;"/>
</linearGradient>
</defs>
<g id="surface1">
<path style=" stroke:none;fill-rule:nonzero;fill:url(#linear0);" d="M 3.472656 19.535156 L 20.339844 19.535156 L 20.339844 20.53125 L 3.472656 20.53125 Z M 3.472656 19.535156 "/>
<path style=" stroke:none;fill-rule:nonzero;fill:url(#radial0);" d="M 20.339844 19.535156 L 22.328125 19.535156 L 22.328125 18.542969 L 20.339844 18.542969 Z M 20.339844 19.535156 "/>
<path style=" stroke:none;fill-rule:nonzero;fill:url(#radial1);" d="M 3.472656 19.535156 L 1.488281 19.535156 L 1.488281 20.53125 L 3.472656 20.53125 Z M 3.472656 19.535156 "/>
<path style=" stroke:none;fill-rule:nonzero;fill:url(#radial2);" d="M 3.472656 19.535156 L 1.488281 19.535156 L 1.488281 18.542969 L 3.472656 18.542969 Z M 3.472656 19.535156 "/>
<path style=" stroke:none;fill-rule:nonzero;fill:url(#radial3);" d="M 20.339844 19.535156 L 22.328125 19.535156 L 22.328125 20.53125 L 20.339844 20.53125 Z M 20.339844 19.535156 "/>
<path style=" stroke:none;fill-rule:nonzero;fill:url(#linear1);" d="M 2.976562 4.652344 L 20.839844 4.652344 C 21.386719 4.652344 21.832031 5.097656 21.832031 5.644531 L 21.832031 18.542969 C 21.832031 19.09375 21.386719 19.535156 20.839844 19.535156 L 2.976562 19.535156 C 2.429688 19.535156 1.984375 19.09375 1.984375 18.542969 L 1.984375 5.644531 C 1.984375 5.097656 2.429688 4.652344 2.976562 4.652344 Z M 2.976562 4.652344 "/>
<path style=" stroke:none;fill-rule:nonzero;fill:url(#linear2);" d="M 21.832031 12.226562 C 17.699219 16.175781 10.703125 18.929688 2.5625 19.449219 C 2.691406 19.503906 2.828125 19.535156 2.976562 19.535156 L 20.839844 19.535156 C 21.386719 19.535156 21.832031 19.09375 21.832031 18.542969 Z M 21.832031 12.226562 "/>
<path style=" stroke:none;fill-rule:nonzero;fill:rgb(100%,100%,100%);fill-opacity:0.588235;" d="M 2.976562 4.652344 C 2.425781 4.652344 1.984375 5.09375 1.984375 5.644531 L 1.984375 5.894531 C 1.984375 5.34375 2.425781 4.902344 2.976562 4.902344 L 20.839844 4.902344 C 21.386719 4.902344 21.832031 5.34375 21.832031 5.894531 L 21.832031 5.644531 C 21.832031 5.09375 21.386719 4.652344 20.839844 4.652344 Z M 2.976562 4.652344 "/>
<path style=" stroke:none;fill-rule:nonzero;fill:rgb(0%,0%,0%);fill-opacity:0.235294;" d="M 1.984375 18.304688 L 1.984375 18.542969 C 1.984375 19.09375 2.425781 19.535156 2.976562 19.535156 L 20.839844 19.535156 C 21.386719 19.535156 21.832031 19.09375 21.832031 18.542969 L 21.832031 18.304688 C 21.832031 18.855469 21.386719 19.296875 20.839844 19.296875 L 2.976562 19.296875 C 2.425781 19.296875 1.984375 18.855469 1.984375 18.304688 Z M 1.984375 18.304688 "/>
<path style="fill:none;stroke-width:3;stroke-linecap:round;stroke-linejoin:round;stroke:rgb(12.941176%,12.941176%,12.941176%);stroke-opacity:1;stroke-miterlimit:4;" d="M 63.493937 -115.759477 L 444.540882 -115.759477 C 456.206434 -115.759477 465.705527 -106.260384 465.705527 -94.594831 L 465.705527 180.545561 C 465.705527 192.294439 456.206434 201.710206 444.540882 201.710206 L 63.493937 201.710206 C 51.828384 201.710206 42.329291 192.294439 42.329291 180.545561 L 42.329291 -94.594831 C 42.329291 -106.260384 51.828384 -115.759477 63.493937 -115.759477 Z M 63.493937 -115.759477 " transform="matrix(0.0468795,0,0,0.0468795,0,10.079087)"/>
<path style="fill:none;stroke-width:11.338583;stroke-linecap:round;stroke-linejoin:round;stroke:rgb(12.941176%,12.941176%,12.941176%);stroke-opacity:1;stroke-miterlimit:4;" d="M 1760.146897 985.732651 C 1426.950365 1304.127447 862.909733 1526.153491 206.594447 1568.039256 C 216.987156 1572.448284 228.009725 1574.967728 239.977086 1574.967728 L 1680.154535 1574.967728 C 1724.244813 1574.967728 1760.146897 1539.380575 1760.146897 1494.975366 Z M 1760.146897 985.732651 " transform="matrix(0.0124035,0,0,0.0124035,0,0)"/>
<path style=" stroke:none;fill-rule:nonzero;fill:url(#linear3);" d="M 10.4375 10.4375 C 9.796875 10.4375 9.285156 10.941406 9.285156 11.574219 C 9.285156 12.210938 9.785156 12.703125 10.429688 12.703125 C 10.609375 12.703125 10.765625 12.667969 10.960938 12.578125 L 10.960938 12.078125 C 10.789062 12.25 10.640625 12.316406 10.449219 12.316406 C 10.023438 12.316406 9.71875 12.007812 9.71875 11.570312 C 9.71875 11.152344 10.03125 10.824219 10.429688 10.824219 C 10.628906 10.824219 10.785156 10.898438 10.960938 11.070312 L 10.960938 10.570312 C 10.773438 10.476562 10.621094 10.4375 10.4375 10.4375 Z M 8.441406 10.453125 C 8.054688 10.453125 7.761719 10.71875 7.761719 11.074219 C 7.761719 11.371094 7.898438 11.523438 8.296875 11.667969 C 8.460938 11.726562 8.546875 11.765625 8.589844 11.789062 C 8.671875 11.847656 8.714844 11.921875 8.714844 12.015625 C 8.714844 12.191406 8.578125 12.320312 8.386719 12.320312 C 8.1875 12.320312 8.023438 12.21875 7.925781 12.03125 L 7.652344 12.292969 C 7.847656 12.582031 8.082031 12.707031 8.402344 12.707031 C 8.84375 12.707031 9.152344 12.414062 9.152344 11.996094 C 9.152344 11.652344 9.007812 11.496094 8.527344 11.320312 C 8.273438 11.226562 8.199219 11.164062 8.199219 11.046875 C 8.199219 10.910156 8.332031 10.804688 8.515625 10.804688 C 8.640625 10.804688 8.746094 10.859375 8.855469 10.980469 L 9.078125 10.691406 C 8.894531 10.53125 8.675781 10.453125 8.441406 10.453125 Z M 5.089844 10.488281 L 5.089844 12.65625 L 5.710938 12.65625 C 6.039062 12.65625 6.273438 12.578125 6.484375 12.40625 C 6.730469 12.199219 6.875 11.890625 6.875 11.574219 C 6.875 10.933594 6.398438 10.488281 5.710938 10.488281 Z M 7.070312 10.488281 L 7.070312 12.65625 L 7.492188 12.65625 L 7.492188 10.488281 Z M 13.273438 10.488281 L 14.191406 12.710938 L 14.417969 12.710938 L 15.355469 10.488281 L 14.898438 10.488281 L 14.3125 11.945312 L 13.734375 10.488281 Z M 15.546875 10.488281 L 15.546875 12.65625 L 16.746094 12.65625 L 16.746094 12.289062 L 15.96875 12.289062 L 15.96875 11.703125 L 16.71875 11.703125 L 16.71875 11.335938 L 15.96875 11.335938 L 15.96875 10.855469 L 16.746094 10.855469 L 16.746094 10.488281 Z M 17.027344 10.488281 L 17.027344 12.65625 L 17.449219 12.65625 L 17.449219 11.785156 L 17.503906 11.785156 L 18.089844 12.65625 L 18.609375 12.65625 L 17.925781 11.742188 C 18.246094 11.675781 18.421875 11.460938 18.421875 11.128906 C 18.421875 10.722656 18.140625 10.488281 17.652344 10.488281 Z M 17.449219 10.828125 L 17.578125 10.828125 C 17.84375 10.828125 17.984375 10.9375 17.984375 11.148438 C 17.984375 11.367188 17.84375 11.484375 17.570312 11.484375 L 17.449219 11.484375 Z M 5.515625 10.855469 L 5.628906 10.855469 C 5.902344 10.855469 6.066406 10.902344 6.207031 11.03125 C 6.351562 11.160156 6.441406 11.363281 6.441406 11.570312 C 6.441406 11.777344 6.351562 11.984375 6.207031 12.117188 C 6.074219 12.234375 5.902344 12.289062 5.628906 12.289062 L 5.515625 12.289062 Z M 5.515625 10.855469 "/>
<path style=" stroke:none;fill-rule:nonzero;fill:url(#linear4);" d="M 12.28125 10.484375 C 12.894531 10.484375 13.394531 10.980469 13.394531 11.597656 C 13.394531 12.214844 12.894531 12.714844 12.28125 12.714844 C 11.664062 12.714844 11.164062 12.214844 11.164062 11.597656 C 11.164062 10.980469 11.664062 10.484375 12.28125 10.484375 Z M 12.28125 10.484375 "/>
<path style="fill:none;stroke-width:11.338583;stroke-linecap:butt;stroke-linejoin:miter;stroke:rgb(12.941176%,12.941176%,12.941176%);stroke-opacity:1;stroke-miterlimit:4;" d="M 841.494455 841.494455 C 789.845843 841.494455 748.58994 882.120497 748.58994 933.139248 C 748.58994 984.472929 788.901052 1024.15418 840.864594 1024.15418 C 855.3514 1024.15418 867.948622 1021.319805 883.69515 1014.076402 L 883.69515 973.76529 C 869.838205 987.622235 857.870844 992.976054 842.439247 992.976054 C 808.111816 992.976054 783.547232 968.09654 783.547232 932.824317 C 783.547232 899.126747 808.741677 872.67258 840.864594 872.67258 C 856.926052 872.67258 869.523275 878.656261 883.69515 892.513206 L 883.69515 852.202094 C 868.578483 844.643761 856.296191 841.494455 841.494455 841.494455 Z M 680.564939 842.754177 C 649.386814 842.754177 625.767022 864.169455 625.767022 892.828136 C 625.767022 916.762859 636.789591 929.045151 668.912508 940.697581 C 682.139592 945.42154 689.068064 948.570845 692.5323 950.460429 C 699.145842 955.184387 702.610078 961.168068 702.610078 968.726401 C 702.610078 982.898276 691.587509 993.290985 676.155911 993.290985 C 660.094453 993.290985 646.867369 985.10279 638.994105 969.986123 L 616.948966 991.086471 C 632.695494 1014.391332 651.591328 1024.46911 677.415634 1024.46911 C 713.002787 1024.46911 737.882301 1000.849318 737.882301 967.151748 C 737.882301 939.437859 726.22987 926.840637 687.493411 912.668761 C 667.022925 905.110428 661.039244 900.071539 661.039244 890.623622 C 661.039244 879.601053 671.746883 871.097928 686.54862 871.097928 C 696.626398 871.097928 705.129523 875.506955 713.947578 885.269803 L 731.89862 861.964941 C 717.096884 849.052788 699.460773 842.754177 680.564939 842.754177 Z M 410.354519 845.588552 L 410.354519 1020.375013 L 460.428478 1020.375013 C 486.882645 1020.375013 505.778479 1014.076402 522.784729 1000.219457 C 542.625354 983.528137 554.277785 958.648623 554.277785 933.139248 C 554.277785 881.490636 515.856256 845.588552 460.428478 845.588552 Z M 570.024313 845.588552 L 570.024313 1020.375013 L 604.036813 1020.375013 L 604.036813 845.588552 Z M 1070.134041 845.588552 L 1144.142723 1024.784041 L 1162.408695 1024.784041 L 1237.992029 845.588552 L 1201.145154 845.588552 L 1153.90557 963.057651 L 1107.295847 845.588552 Z M 1253.423627 845.588552 L 1253.423627 1020.375013 L 1350.107309 1020.375013 L 1350.107309 990.77154 L 1287.436127 990.77154 L 1287.436127 943.531956 L 1347.902795 943.531956 L 1347.902795 913.928484 L 1287.436127 913.928484 L 1287.436127 875.192025 L 1350.107309 875.192025 L 1350.107309 845.588552 Z M 1372.782309 845.588552 L 1372.782309 1020.375013 L 1406.794809 1020.375013 L 1406.794809 950.145498 L 1411.203837 950.145498 L 1458.443421 1020.375013 L 1500.329186 1020.375013 L 1445.216338 946.681262 C 1471.040644 941.327442 1485.212519 924.006262 1485.212519 897.237164 C 1485.212519 864.484386 1462.537518 845.588552 1423.171198 845.588552 Z M 1406.794809 872.987511 L 1417.187518 872.987511 C 1438.602796 872.987511 1449.940296 881.805567 1449.940296 898.811817 C 1449.940296 916.447928 1438.602796 925.895845 1416.557657 925.895845 L 1406.794809 925.895845 Z M 444.68195 875.192025 L 453.814936 875.192025 C 475.860075 875.192025 489.087159 878.971192 500.424659 889.3639 C 512.07709 899.756609 519.320493 916.132998 519.320493 932.824317 C 519.320493 949.515637 512.07709 966.206957 500.424659 976.914596 C 489.71702 986.362512 475.860075 990.77154 453.814936 990.77154 L 444.68195 990.77154 Z M 444.68195 875.192025 " transform="matrix(0.0124035,0,0,0.0124035,0,0)"/>
<path style="fill:none;stroke-width:3;stroke-linecap:round;stroke-linejoin:round;stroke:rgb(12.941176%,12.941176%,12.941176%);stroke-opacity:1;stroke-miterlimit:4;" d="M 261.974983 8.64531 C 275.057067 8.64531 285.722715 19.227632 285.722715 32.393042 C 285.722715 45.558451 275.057067 56.224099 261.974983 56.224099 C 248.809573 56.224099 238.143925 45.558451 238.143925 32.393042 C 238.143925 19.227632 248.809573 8.64531 261.974983 8.64531 Z M 261.974983 8.64531 " transform="matrix(0.0468795,0,0,0.0468795,0,10.079087)"/>
</g>
</svg>
